res/skins/LateNight/buttons/btn_pfl_over.svg

<?xml version="1.0" encoding="UTF-8" standalone="no"?>
<!-- Created with Inkscape (http://www.inkscape.org/) -->

<svg
   xmlns:dc="http://purl.org/dc/elements/1.1/"
   xmlns:cc="http://creativecommons.org/ns#"
   xmlns:rdf="http://www.w3.org/1999/02/22-rdf-syntax-ns#"
   xmlns:svg="http://www.w3.org/2000/svg"
   xmlns="http://www.w3.org/2000/svg"
   xmlns:xlink="http://www.w3.org/1999/xlink"
   version="1.1"
   width="26"
   height="26"
   id="svg25537">
  <defs
     id="defs25539">
    <linearGradient
       x1="15"
       y1="1049.3622"
       x2="15"
       y2="1027.3622"
       id="linearGradient25229"
       xlink:href="#linearGradient3801-6-9-0"
       gradientUnits="userSpaceOnUse"
       gradientTransform="translate(0,-1026.3622)" />
    <linearGradient
       id="linearGradient3801-6-9-0">
      <stop
         id="stop3803-7-1-9"
         style="stop-color:#aa1112;stop-opacity:1"
         offset="0" />
      <stop
         id="stop4329-4"
         style="stop-color:#b60607;stop-opacity:1"
         offset="0.28" />
      <stop
         id="stop3805-5-28-5"
         style="stop-color:#760607;stop-opacity:1"
         offset="1" />
    </linearGradient>
    <linearGradient
       x1="15"
       y1="1049.3622"
       x2="15"
       y2="1027.3622"
       id="linearGradient4370"
       xlink:href="#linearGradient3801-6-9-0-1"
       gradientUnits="userSpaceOnUse"
       gradientTransform="translate(0,-1026.3622)" />
    <linearGradient
       id="linearGradient3801-6-9-0-1">
      <stop
         id="stop3803-7-1-9-5"
         style="stop-color:#aa1112;stop-opacity:1"
         offset="0" />
      <stop
         id="stop4329-4-9"
         style="stop-color:#b60607;stop-opacity:1"
         offset="0.28" />
      <stop
         id="stop3805-5-28-5-7"
         style="stop-color:#760607;stop-opacity:1"
         offset="1" />
    </linearGradient>
    <linearGradient
       x1="13"
       y1="1027.3622"
       x2="13"
       y2="1049.3622"
       id="linearGradient3807-3"
       xlink:href="#linearGradient3801-6"
       gradientUnits="userSpaceOnUse"
       gradientTransform="translate(0,-1026.3622)" />
    <linearGradient
       id="linearGradient3801-6">
      <stop
         id="stop3803-7"
         style="stop-color:#242424;stop-opacity:1"
         offset="0" />
      <stop
         id="stop3805-5"
         style="stop-color:#101010;stop-opacity:1"
         offset="1" />
    </linearGradient>
    <linearGradient
       x1="15"
       y1="1049.3622"
       x2="15"
       y2="1027.3622"
       id="linearGradient4370-6"
       xlink:href="#linearGradient3801-6-9-0-7"
       gradientUnits="userSpaceOnUse"
       gradientTransform="translate(0,-1026.3622)" />
    <linearGradient
       id="linearGradient3801-6-9-0-7">
      <stop
         id="stop3803-7-1-9-3"
         style="stop-color:#aa1112;stop-opacity:1"
         offset="0" />
      <stop
         id="stop4329-4-6"
         style="stop-color:#b60607;stop-opacity:1"
         offset="0.28" />
      <stop
         id="stop3805-5-28-5-5"
         style="stop-color:#760607;stop-opacity:1"
         offset="1" />
    </linearGradient>
    <linearGradient
       x1="15"
       y1="1049.3622"
       x2="15"
       y2="1027.3622"
       id="linearGradient14755"
       xlink:href="#linearGradient3801-6-9-0-6"
       gradientUnits="userSpaceOnUse"
       gradientTransform="translate(0,-1026.3622)" />
    <linearGradient
       id="linearGradient3801-6-9-0-6">
      <stop
         id="stop3803-7-1-9-39"
         style="stop-color:#aa1112;stop-opacity:1"
         offset="0" />
      <stop
         id="stop4329-4-4"
         style="stop-color:#b60607;stop-opacity:1"
         offset="0.28" />
      <stop
         id="stop3805-5-28-5-8"
         style="stop-color:#760607;stop-opacity:1"
         offset="1" />
    </linearGradient>
    <linearGradient
       x1="15"
       y1="1049.3622"
       x2="15"
       y2="1027.3622"
       id="linearGradient14408"
       xlink:href="#linearGradient3801-6-9-0-12"
       gradientUnits="userSpaceOnUse"
       gradientTransform="translate(0,-1026.3622)" />
    <linearGradient
       id="linearGradient3801-6-9-0-12">
      <stop
         id="stop3803-7-1-9-9"
         style="stop-color:#aa1112;stop-opacity:1"
         offset="0" />
      <stop
         id="stop4329-4-3"
         style="stop-color:#b60607;stop-opacity:1"
         offset="0.28" />
      <stop
         id="stop3805-5-28-5-9"
         style="stop-color:#760607;stop-opacity:1"
         offset="1" />
    </linearGradient>
    <linearGradient
       x1="15"
       y1="1049.3622"
       x2="15"
       y2="1027.3622"
       id="linearGradient4370-0"
       xlink:href="#linearGradient3801-6-9-0-8"
       gradientUnits="userSpaceOnUse"
       gradientTransform="translate(0,-1026.3622)" />
    <linearGradient
       id="linearGradient3801-6-9-0-8">
      <stop
         id="stop3803-7-1-9-8"
         style="stop-color:#aa1112;stop-opacity:1"
         offset="0" />
      <stop
         id="stop4329-4-5"
         style="stop-color:#b60607;stop-opacity:1"
         offset="0.28" />
      <stop
         id="stop3805-5-28-5-0"
         style="stop-color:#760607;stop-opacity:1"
         offset="1" />
    </linearGradient>
    <linearGradient
       x1="15"
       y1="1049.3622"
       x2="15"
       y2="1027.3622"
       id="linearGradient4370-9"
       xlink:href="#linearGradient3801-6-9-0-63"
       gradientUnits="userSpaceOnUse"
       gradientTransform="translate(0,-1026.3622)" />
    <linearGradient
       id="linearGradient3801-6-9-0-63">
      <stop
         id="stop3803-7-1-9-85"
         style="stop-color:#aa1112;stop-opacity:1"
         offset="0" />
      <stop
         id="stop4329-4-61"
         style="stop-color:#b60607;stop-opacity:1"
         offset="0.28" />
      <stop
         id="stop3805-5-28-5-1"
         style="stop-color:#760607;stop-opacity:1"
         offset="1" />
    </linearGradient>
    <linearGradient
       x1="11"
       y1="1027.3622"
       x2="11"
       y2="1049.3622"
       id="linearGradient4650"
       xlink:href="#linearGradient3801-6-9-9"
       gradientUnits="userSpaceOnUse"
       gradientTransform="translate(0,-1050.3622)" />
    <linearGradient
       id="linearGradient3801-6-9-9">
      <stop
         id="stop3803-7-1-95"
         style="stop-color:#ce0e0e;stop-opacity:1"
         offset="0" />
      <stop
         id="stop4329-2"
         style="stop-color:#dd0000;stop-opacity:1"
         offset="0.28" />
      <stop
         id="stop3805-5-28-1"
         style="stop-color:#8d0000;stop-opacity:1"
         offset="1" />
    </linearGradient>
    <linearGradient
       x1="15"
       y1="1049.3622"
       x2="15"
       y2="1027.3622"
       id="linearGradient3878"
       xlink:href="#linearGradient3801-6-5"
       gradientUnits="userSpaceOnUse"
       gradientTransform="translate(0,-1026.3622)" />
    <linearGradient
       id="linearGradient3801-6-5">
      <stop
         id="stop3803-7-6"
         style="stop-color:#222222;stop-opacity:1"
         offset="0" />
      <stop
         id="stop3805-5-2"
         style="stop-color:#131516;stop-opacity:1"
         offset="1" />
    </linearGradient>
    <linearGradient
       x1="13"
       y1="1027.3622"
       x2="13"
       y2="1049.3622"
       id="linearGradient3807-3-5"
       xlink:href="#linearGradient3801-6-9"
       gradientUnits="userSpaceOnUse"
       gradientTransform="translate(0,-1026.3622)" />
    <linearGradient
       id="linearGradient3801-6-9">
      <stop
         id="stop3803-7-8"
         style="stop-color:#242424;stop-opacity:1"
         offset="0" />
      <stop
         id="stop3805-5-4"
         style="stop-color:#101010;stop-opacity:1"
         offset="1" />
    </linearGradient>
    <linearGradient
       x1="13"
       y1="1027.3622"
       x2="13"
       y2="1049.3622"
       id="linearGradient3807-3-1"
       xlink:href="#linearGradient3801-6-0"
       gradientUnits="userSpaceOnUse"
       gradientTransform="translate(0,-1026.3622)" />
    <linearGradient
       id="linearGradient3801-6-0">
      <stop
         id="stop3803-7-3"
         style="stop-color:#242424;stop-opacity:1"
         offset="0" />
      <stop
         id="stop3805-5-0"
         style="stop-color:#101010;stop-opacity:1"
         offset="1" />
    </linearGradient>
    <linearGradient
       x1="13"
       y1="1027.3622"
       x2="13"
       y2="1049.3622"
       id="linearGradient3807-3-4"
       xlink:href="#linearGradient3801-6-4"
       gradientUnits="userSpaceOnUse"
       gradientTransform="translate(0,-1026.3622)" />
    <linearGradient
       id="linearGradient3801-6-4">
      <stop
         id="stop3803-7-4"
         style="stop-color:#242424;stop-opacity:1"
         offset="0" />
      <stop
         id="stop3805-5-7"
         style="stop-color:#101010;stop-opacity:1"
         offset="1" />
    </linearGradient>
    <linearGradient
       x1="13"
       y1="1027.3622"
       x2="13"
       y2="1049.3622"
       id="linearGradient14816"
       xlink:href="#linearGradient3801-6-96"
       gradientUnits="userSpaceOnUse"
       gradientTransform="translate(0,-1026.3622)" />
    <linearGradient
       id="linearGradient3801-6-96">
      <stop
         id="stop3803-7-2"
         style="stop-color:#242424;stop-opacity:1"
         offset="0" />
      <stop
         id="stop3805-5-1"
         style="stop-color:#101010;stop-opacity:1"
         offset="1" />
    </linearGradient>
    <linearGradient
       x1="13"
       y1="1027.4"
       x2="13"
       y2="1049.4"
       id="linearGradient15164"
       gradientUnits="userSpaceOnUse">
      <stop
         id="stop21798"
         style="stop-color:#242424;stop-opacity:1"
         offset="0" />
      <stop
         id="stop21800"
         style="stop-color:#101010;stop-opacity:1"
         offset="1" />
    </linearGradient>
    <linearGradient
       id="linearGradient3801-6-7">
      <stop
         id="stop3803-7-85"
         style="stop-color:#242424;stop-opacity:1"
         offset="0" />
      <stop
         id="stop3805-5-74"
         style="stop-color:#101010;stop-opacity:1"
         offset="1" />
    </linearGradient>
    <linearGradient
       x1="11"
       y1="1027.3622"
       x2="11"
       y2="1049.3622"
       id="linearGradient35530"
       xlink:href="#linearGradient3801-6-9-9-1"
       gradientUnits="userSpaceOnUse"
       gradientTransform="translate(0,-1050.3622)" />
    <linearGradient
       id="linearGradient3801-6-9-9-1">
      <stop
         id="stop3803-7-1-95-8"
         style="stop-color:#ce0e0e;stop-opacity:1"
         offset="0" />
      <stop
         id="stop4329-2-5"
         style="stop-color:#dd0000;stop-opacity:1"
         offset="0.28" />
      <stop
         id="stop3805-5-28-1-9"
         style="stop-color:#8d0000;stop-opacity:1"
         offset="1" />
    </linearGradient>
    <linearGradient
       x1="11"
       y1="1027.3622"
       x2="11"
       y2="1049.3622"
       id="linearGradient35558"
       xlink:href="#linearGradient3801-6-9-9-1"
       gradientUnits="userSpaceOnUse"
       gradientTransform="translate(0,-2076.7244)" />
    <linearGradient
       x1="11"
       y1="1027.3622"
       x2="11"
       y2="1049.3622"
       id="linearGradient4165"
       xlink:href="#linearGradient3801-6-9-9-1"
       gradientUnits="userSpaceOnUse"
       gradientTransform="translate(0,-1050.3622)" />
  </defs>
  <metadata
     id="metadata25542">
    <rdf:RDF>
      <cc:Work
         rdf:about="">
        <dc:format>image/svg+xml</dc:format>
        <dc:type
           rdf:resource="http://purl.org/dc/dcmitype/StillImage" />
        <dc:title></dc:title>
      </cc:Work>
    </rdf:RDF>
  </metadata>
  <rect
     width="23"
     height="23.000017"
     rx="1.5"
     ry="1.5"
     x="0.5"
     y="-23.499983"
     transform="scale(1,-1)"
     id="rect3029-96-3"
     style="color:#000000;fill:url(#linearGradient4165);fill-opacity:1;fill-rule:nonzero;stroke:none;stroke-width:1;marker:none;visibility:visible;display:inline;overflow:visible;enable-background:accumulate" />
  <path
     d="M 2,0 C 0.90064862,0 0,0.9006 0,2 l 0,20 c 0,1.0994 0.90064862,2 2,2 l 20,0 c 1.099351,0 2,-0.9006 2,-2 L 24,2 C 24,0.9006 23.099351,0 22,0 z M 2.3,1 21.7,1 C 22.262649,1 23,1.7374 23,2.3 l 0,19.4 C 23,22.2626 22.262649,23 21.7,23 L 2.3,23 C 1.7373514,23 1,22.2626 1,21.7 L 1,2.3 C 1,1.7374 1.7373514,1 2.3,1 z"
     id="rect3029-96"
     style="font-size:medium;font-style:normal;font-variant:normal;font-weight:normal;font-stretch:normal;text-indent:0;text-align:start;text-decoration:none;line-height:normal;letter-spacing:normal;word-spacing:normal;text-transform:none;direction:ltr;block-progression:tb;writing-mode:lr-tb;text-anchor:start;baseline-shift:baseline;color:#000000;fill:#979797;fill-opacity:1;fill-rule:nonzero;stroke:none;stroke-width:1;marker:none;visibility:visible;display:inline;overflow:visible;enable-background:accumulate;font-family:Sans;-inkscape-font-specification:Sans" />
  <path
     d="m 13,6 c -3.7249587,0 -6.75,3.0249918 -6.75,6.75 0,0.03983 -9.401e-4,0.07667 0,0.125 l 0,0.21875 C 5.4918509,13.735765 5,14.678725 5,15.75 c 0,1.933 1.567004,3.5 3.5,3.5 l 0,-7 c -0.2416245,0 -0.4909085,0.01588 -0.71875,0.0625 C 7.9969151,9.6093934 10.240682,7.5 13,7.5 c 2.752956,0 4.993881,2.1182506 5.21875,4.8125 C 17.990908,12.265877 17.741625,12.25 17.5,12.25 l 0,7 c 1.932996,0 3.5,-1.567 3.5,-3.5 0,-1.087312 -0.503385,-2.045549 -1.28125,-2.6875 C 19.724865,12.956907 19.75,12.859434 19.75,12.75 19.75,9.0249918 16.724959,6 13,6 z"
     id="path9863-1-2-3"
     style="font-size:medium;font-style:normal;font-variant:normal;font-weight:normal;font-stretch:normal;text-indent:0;text-align:start;text-decoration:none;line-height:normal;letter-spacing:normal;word-spacing:normal;text-transform:none;direction:ltr;block-progression:tb;writing-mode:lr-tb;text-anchor:start;baseline-shift:baseline;color:#000000;fill:#320202;fill-opacity:1;fill-rule:nonzero;stroke:none;stroke-width:0.5;marker:none;visibility:visible;display:inline;overflow:visible;enable-background:accumulate;font-family:Sans;-inkscape-font-specification:Sans" />
  <path
     d="m 12,5 c -3.7249587,0 -6.75,3.0249918 -6.75,6.75 0,0.03983 -9.401e-4,0.07667 0,0.125 l 0,0.21875 C 4.4918509,12.735765 4,13.678725 4,14.75 c 0,1.933 1.567004,3.5 3.5,3.5 l 0,-7 c -0.2416245,0 -0.4909085,0.01588 -0.71875,0.0625 C 6.9969151,8.6093934 9.2406818,6.5 12,6.5 c 2.752956,0 4.993881,2.1182506 5.21875,4.8125 C 16.990908,11.265877 16.741625,11.25 16.5,11.25 l 0,7 c 1.932996,0 3.5,-1.567 3.5,-3.5 0,-1.087312 -0.503385,-2.045549 -1.28125,-2.6875 C 18.724865,11.956907 18.75,11.859434 18.75,11.75 18.75,8.0249918 15.724959,5 12,5 z"
     id="path9863-1-2"
     style="font-size:medium;font-style:normal;font-variant:normal;font-weight:normal;font-stretch:normal;text-indent:0;text-align:start;text-decoration:none;line-height:normal;letter-spacing:normal;word-spacing:normal;text-transform:none;direction:ltr;block-progression:tb;writing-mode:lr-tb;text-anchor:start;baseline-shift:baseline;color:#000000;fill:#eeeeee;fill-opacity:1;fill-rule:nonzero;stroke:none;stroke-width:0.5;marker:none;visibility:visible;display:inline;overflow:visible;enable-background:accumulate;font-family:Sans;-inkscape-font-specification:Sans" />
</svg>

<svg id="svg25537" width="26" height="26" version="1.1" xmlns="http://www.w3.org/2000/svg"><defs id="defs25539"><linearGradient id="linearGradient4165" x1="11" x2="11" y1="1027.4" y2="1049.4" gradientTransform="translate(0 -1050.4)" gradientUnits="userSpaceOnUse"><stop id="stop3803-7-1-95-8" stop-color="#ce0e0e" offset="0"/><stop id="stop4329-2-5" stop-color="#d00" offset=".28"/><stop id="stop3805-5-28-1-9" stop-color="#8d0000" offset="1"/></linearGradient></defs><rect id="rect3029-96-3" transform="scale(1,-1)" x=".5" y="-23.5" width="23" height="23" rx="1.5" ry="1.5" color="#000000" fill="url(#linearGradient4165)"/><path id="rect3029-96" d="m2 0c-1.0994 0-2 0.9006-2 2v20c0 1.0994 0.90065 2 2 2h20c1.0994 0 2-0.9006 2-2v-20c0-1.0994-0.90065-2-2-2zm0.3 1h19.4c0.56265 0 1.3 0.7374 1.3 1.3v19.4c0 0.5626-0.73735 1.3-1.3 1.3h-19.4c-0.56265 0-1.3-0.7374-1.3-1.3v-19.4c0-0.5626 0.73735-1.3 1.3-1.3z" color="#000000" fill="#979797" style="block-progression:tb;text-indent:0;text-transform:none"/><path id="path9863-1-2-3" d="m13 6c-3.725 0-6.75 3.025-6.75 6.75 0 0.03983-9.401e-4 0.07667 0 0.125v0.21875c-0.75815 0.64202-1.25 1.585-1.25 2.6562 0 1.933 1.567 3.5 3.5 3.5v-7c-0.24162 0-0.49091 0.01588-0.71875 0.0625 0.21567-2.7031 2.4594-4.8125 5.2188-4.8125 2.753 0 4.9939 2.1183 5.2188 4.8125-0.22784-0.046623-0.47712-0.0625-0.71875-0.0625v7c1.933 0 3.5-1.567 3.5-3.5 0-1.0873-0.50338-2.0455-1.2812-2.6875 0.006115-0.10559 0.03125-0.20307 0.03125-0.3125 0-3.725-3.025-6.75-6.75-6.75z" color="#000000" fill="#320202" style="block-progression:tb;text-indent:0;text-transform:none"/><path id="path9863-1-2" d="m12 5c-3.725 0-6.75 3.025-6.75 6.75 0 0.03983-9.401e-4 0.07667 0 0.125v0.21875c-0.75815 0.64202-1.25 1.585-1.25 2.6562 0 1.933 1.567 3.5 3.5 3.5v-7c-0.24162 0-0.49091 0.01588-0.71875 0.0625 0.21567-2.7031 2.4594-4.8125 5.2188-4.8125 2.753 0 4.9939 2.1183 5.2188 4.8125-0.22784-0.046623-0.47712-0.0625-0.71875-0.0625v7c1.933 0 3.5-1.567 3.5-3.5 0-1.0873-0.50338-2.0455-1.2812-2.6875 0.006115-0.10559 0.03125-0.20307 0.03125-0.3125 0-3.725-3.025-6.75-6.75-6.75z" color="#000000" fill="#eee" style="block-progression:tb;text-indent:0;text-transform:none"/></svg>
